svg/m/CC.svg

<svg width="20" height="15" viewBox="0 0 20 15" fill="none" xmlns="http://www.w3.org/2000/svg">
<mask id="mask0" mask-type="alpha" maskUnits="userSpaceOnUse" x="0" y="0" width="20" height="15">
<rect width="20" height="15" fill="white"/>
</mask>
<g mask="url(#mask0)">
<path fill-rule="evenodd" clip-rule="evenodd" d="M0 0H20V15H0V0Z" fill="#5EAA22"/>
<path fill-rule="evenodd" clip-rule="evenodd" d="M15 4.375L14.375 4.83253L14.4587 4.0625L13.75 3.75L14.4587 3.4375L14.375 2.66747L15 3.125L15.625 2.66747L15.5413 3.4375L16.25 3.75L15.5413 4.0625L15.625 4.83253L15 4.375Z" fill="#FECA00"/>
<path fill-rule="evenodd" clip-rule="evenodd" d="M14.3517 8.54921L13.7267 9.00674L13.8105 8.23671L13.1017 7.92421L13.8105 7.61171L13.7267 6.84167L14.3517 7.29921L14.9767 6.84167L14.893 7.61171L15.6017 7.92421L14.893 8.23671L14.9767 9.00674L14.3517 8.54921Z" fill="#FECA00"/>
<path fill-rule="evenodd" clip-rule="evenodd" d="M16.25 11.875L15.625 12.3325L15.7087 11.5625L15 11.25L15.7087 10.9375L15.625 10.1675L16.25 10.625L16.875 10.1675L16.7913 10.9375L17.5 11.25L16.7913 11.5625L16.875 12.3325L16.25 11.875Z" fill="#FECA00"/>
<path fill-rule="evenodd" clip-rule="evenodd" d="M16.875 5.9375L16.5625 6.16627L16.6044 5.78125L16.25 5.625L16.6044 5.46875L16.5625 5.08373L16.875 5.3125L17.1875 5.08373L17.1456 5.46875L17.5 5.625L17.1456 5.78125L17.1875 6.16627L16.875 5.9375Z" fill="#FECA00"/>
<path fill-rule="evenodd" clip-rule="evenodd" d="M4.375 8.75C6.10089 8.75 7.5 7.35089 7.5 5.625C7.5 3.89911 6.10089 2.5 4.375 2.5C2.64911 2.5 1.25 3.89911 1.25 5.625C1.25 7.35089 2.64911 8.75 4.375 8.75Z" fill="#FECA00"/>
<path d="M4.05593 7.49216L3.83167 7.33417C4.32775 6.68426 4.19657 5.77601 4.05593 5.17913L4.96844 4.96411C5.17792 5.85312 4.71285 6.63154 4.05593 7.49216Z" fill="#915E2B"/>
<path fill-rule="evenodd" clip-rule="evenodd" d="M12.4361 9.34061C12.0247 10.0466 11.371 10.367 10.496 10.367C9.18653 10.367 8.125 9.30546 8.125 7.99599C8.125 6.68653 9.18653 5.625 10.496 5.625C11.4951 5.625 12.2922 5.97455 12.6579 6.92662C12.3684 6.63952 11.9203 6.44259 11.25 6.46755C10.2145 6.46755 9.54084 7.27429 9.54084 7.96464C9.54084 8.655 10.2145 9.59343 11.25 9.59343C11.7708 9.58563 12.1556 9.4904 12.4361 9.34061Z" fill="#FECA00"/>
<path fill-rule="evenodd" clip-rule="evenodd" d="M4.37501 5.46216C5.41054 5.46216 6.07064 5.18234 6.07064 4.83716C6.07064 4.49198 5.41054 4.21216 4.37501 4.21216C3.33948 4.21216 2.80273 4.49198 2.80273 4.83716C2.80273 5.18234 3.33948 5.46216 4.37501 5.46216Z" fill="#5EAA22"/>
</g>
</svg>

<svg width="20" height="15" fill="none" xmlns="http://www.w3.org/2000/svg">
  <g mask="url(#CC_-_Cocos_(Keeling)_Islands__a)">
    <path fill-rule="evenodd" clip-rule="evenodd" d="M0 0h20v15H0V0z" fill="#5EAA22"/>
    <path fill-rule="evenodd" clip-rule="evenodd" d="M15 4.375l-.625.458.084-.77-.709-.313.709-.313-.084-.77.625.458.625-.458-.084.77.709.313-.709.313.084.77L15 4.375zm-.648 4.175l-.625.457.083-.77-.708-.313.708-.312-.083-.77.625.457.625-.457-.084.77.709.312-.709.313.084.77-.625-.458zm1.898 3.325l-.625.457.084-.77L15 11.25l.709-.313-.084-.77.625.458.625-.457-.084.77.709.312-.709.313.084.77-.625-.458zm.625-5.937l-.313.228.042-.385-.354-.156.354-.156-.041-.385.312.229.313-.23-.042.386.354.156-.354.156.041.385-.312-.229zM4.375 8.75a3.125 3.125 0 100-6.25 3.125 3.125 0 000 6.25z" fill="#FECA00"/>
    <path d="M4.056 7.492l-.224-.158c.496-.65.365-1.558.224-2.155l.912-.215c.21.89-.255 1.668-.912 2.528z" fill="#915E2B"/>
    <path fill-rule="evenodd" clip-rule="evenodd" d="M12.436 9.34c-.411.707-1.065 1.027-1.94 1.027a2.371 2.371 0 010-4.742c1 0 1.796.35 2.162 1.302-.29-.287-.738-.484-1.408-.46-1.036 0-1.71.807-1.71 1.498 0 .69.675 1.628 1.71 1.628.52-.007.906-.103 1.186-.252z" fill="#FECA00"/>
    <path fill-rule="evenodd" clip-rule="evenodd" d="M4.375 5.462c1.036 0 1.696-.28 1.696-.625s-.66-.625-1.696-.625-1.572.28-1.572.625.536.625 1.572.625z" fill="#5EAA22"/>
  </g>
</svg>
